icons/lines/ontology--ont-.svg

<svg xmlns="http://www.w3.org/2000/svg" width="24" height="24" viewBox="0 0 24 24" fill="none" stroke="currentColor" stroke-width="2" stroke-linecap="round" stroke-linejoin="round" >
  <path d="M17.9002 19.7C16.2002 21.2 13.9002 22.1 11.4002 22C6.2002 21.9 2.2002 17.4 2.2002 12.2V5.2C2.2002 4.8 2.7002 4.5 3.1002 4.8L17.9002 19.7Z" stroke-miterlimit="10"/>
  <path d="M6.2002 4.30001C7.9002 2.80001 10.2002 1.90001 12.6002 2.00001C17.7002 2.10001 21.7002 6.50001 21.7002 11.7V18.7C21.7002 19.1 21.2002 19.4 20.8002 19.1L6.2002 4.30001Z" stroke-miterlimit="10"/>
  </svg>

<svg xmlns="http://www.w3.org/2000/svg" width="24" height="24" viewBox="0 0 24 24" fill="none" stroke="currentColor" stroke-width="2" stroke-linecap="round" stroke-linejoin="round">
  <path d="M17.9 19.7a9.26 9.26 0 0 1-6.5 2.3c-5.2-.1-9.2-4.6-9.2-9.8v-7c0-.4.5-.7.9-.4z" />
  <path d="M6.2 4.3c1.7-1.5 4-2.4 6.4-2.3 5.1.1 9.1 4.5 9.1 9.7v7c0 .4-.5.7-.9.4z" />
</svg>
